svgs/sharp-light/watch-apple.svg

<svg xmlns="http://www.w3.org/2000/svg" viewBox="0 0 384 512"><!--! Font Awesome Pro 6.6.0 by @fontawesome - https://fontawesome.com License - https://fontawesome.com/license (Commercial License) Copyright 2024 Fonticons, Inc. --><path d="M80 0L64 0l0 16 0 48L32 64 0 64 0 96 0 416l0 32 32 0 32 0 0 48 0 16 16 0 224 0 16 0 0-16 0-48 32 0 32 0 0-32 0-320 0-32-32 0-32 0 0-48 0-16L304 0 80 0zM96 480l0-32 192 0 0 32L96 480zM288 64L96 64l0-32 192 0 0 32zM32 96l320 0 0 320L32 416 32 96zM192 280a24 24 0 1 0 0-48 24 24 0 1 0 0 48zm64 48a24 24 0 1 0 -48 0 24 24 0 1 0 48 0zM152 352a24 24 0 1 0 0-48 24 24 0 1 0 0 48zM256 184a24 24 0 1 0 -48 0 24 24 0 1 0 48 0zM152 208a24 24 0 1 0 0-48 24 24 0 1 0 0 48zm-8 48a24 24 0 1 0 -48 0 24 24 0 1 0 48 0zm120 24a24 24 0 1 0 0-48 24 24 0 1 0 0 48z"/></svg>

<svg xmlns="http://www.w3.org/2000/svg" viewBox="0 0 384 512"><!--! Font Awesome Pro 6.4.0 by @fontawesome - https://fontawesome.com License - https://fontawesome.com/license (Commercial License) Copyright 2023 Fonticons, Inc. --><path d="M80 0H64V16 64H32 0V96 416v32H32 64l0 48v16H80l224 0h16V496 448h32 32V416 96 64H352 320V16 0H304 80zM96 480l0-32H288v32L96 480zM288 64H96V32H288V64zM32 96H352V416H32V96zM192 280a24 24 0 1 0 0-48 24 24 0 1 0 0 48zm64 48a24 24 0 1 0 -48 0 24 24 0 1 0 48 0zM152 352a24 24 0 1 0 0-48 24 24 0 1 0 0 48zM256 184a24 24 0 1 0 -48 0 24 24 0 1 0 48 0zM152 208a24 24 0 1 0 0-48 24 24 0 1 0 0 48zm-8 48a24 24 0 1 0 -48 0 24 24 0 1 0 48 0zm120 24a24 24 0 1 0 0-48 24 24 0 1 0 0 48z"/></svg>
